packages/astro-components-stencil/src/icons/local-gas-station.svg

<svg xmlns="http://www.w3.org/2000/svg" viewBox="0 0 24 24"><g xmlns="http://www.w3.org/2000/svg" id="local-gas-station" fill-rule="nonzero">
            <path d="M19.77 7.23l.01-.01-3.19-3.19a.754.754 0 00-1.06 0c-.29.29-.29.77 0 1.06l1.58 1.58c-1.05.4-1.76 1.47-1.58 2.71.16 1.1 1.1 1.99 2.2 2.11.47.05.88-.03 1.27-.2v7.21c0 .55-.45 1-1 1s-1-.45-1-1V14c0-1.1-.9-2-2-2h-1V5c0-1.1-.9-2-2-2H6c-1.1 0-2 .9-2 2v15c0 .55.45 1 1 1h8c.55 0 1-.45 1-1v-6.5h1.5v4.86c0 1.31.94 2.5 2.24 2.63a2.5 2.5 0 002.76-2.49V9c0-.69-.28-1.32-.73-1.77zM12 10H6V6c0-.55.45-1 1-1h4c.55 0 1 .45 1 1v4zm6 0c-.55 0-1-.45-1-1s.45-1 1-1 1 .45 1 1-.45 1-1 1z"/>
        </g></svg>

<svg width="24" height="24" viewBox="0 0 24 24" fill="none" xmlns="http://www.w3.org/2000/svg">
<path fill-rule="evenodd" clip-rule="evenodd" d="M19.77 7.23L19.78 7.22L16.59 4.03C16.3 3.74 15.82 3.74 15.53 4.03C15.24 4.32 15.24 4.8 15.53 5.09L17.11 6.67C16.06 7.07 15.35 8.14 15.53 9.38C15.69 10.48 16.63 11.37 17.73 11.49C18.2 11.54 18.61 11.46 19 11.29V18.5C19 19.05 18.55 19.5 18 19.5C17.45 19.5 17 19.05 17 18.5V14C17 12.9 16.1 12 15 12H14V5C14 3.9 13.1 3 12 3H6C4.9 3 4 3.9 4 5V20C4 20.55 4.45 21 5 21H13C13.55 21 14 20.55 14 20V13.5H15.5V18.36C15.5 19.67 16.44 20.86 17.74 20.99C19.24 21.14 20.5 19.97 20.5 18.5V9C20.5 8.31 20.22 7.68 19.77 7.23ZM12 10H6V6C6 5.45 6.45 5 7 5H11C11.55 5 12 5.45 12 6V10ZM17 9C17 9.55 17.45 10 18 10C18.55 10 19 9.55 19 9C19 8.45 18.55 8 18 8C17.45 8 17 8.45 17 9Z" fill="black"/>
</svg>
